X: 24539
T: Lugum Leik
R: reel
M: 4/4
K: Adorian
E2|A2 cB G2 G2|A2 c2 e2 g2|g2 fd f2 g2|e2 ec A2 E2|
A2 cB G2 G2|A2 c2 e2 g2|g2fd f2 g2|1 e4 e2:|2 e4 e2 gf||
|:d2 d4 ec|A2 A4 cB|G2 G2 B2 Bc|[M:6/4] A2 Ac e2 e4 gf|
[M:4/4] d2 d4 ec|A2 A4 cB|G2 G2 B2 Bc|1 [M:6/4] A2 A2 A2 ce e2 gf:|2 [M:4/4] A2 A2 A2||

